%
(Header)
(Generated by gcodetools from Inkscape.)
(Using default header. To add your own header create file "header" in the output dir.)
M3
(Header end.)
G21 (All units in mm)

(Start cutting path id: path3758-0)
(Change tool to Default tool)

G00 Z5.000000
G00 X140.832068 Y16.999503

G01 Z-0.125000 F60.0(Penetrate)
G02 X140.061690 Y15.139648 Z-0.125000 I-2.630230 J0.000000 F100.000000
G02 X138.201833 Y14.369271 Z-0.125000 I-1.859857 J1.859860
G02 X136.341977 Y15.139648 Z-0.125000 I-0.000000 J2.630237
G02 X135.571598 Y16.999503 Z-0.125000 I1.859852 J1.859855
G02 X136.341977 Y18.859361 Z-0.125000 I2.630235 J-0.000000
G02 X138.201833 Y19.629738 Z-0.125000 I1.859856 J-1.859858
G02 X140.061689 Y18.859361 Z-0.125000 I0.000000 J-2.630235
G02 X140.832068 Y16.999503 Z-0.125000 I-1.859856 J-1.859858
G01 X140.832068 Y16.999503 Z-0.125000
G00 Z5.000000

(End cutting path id: path3758-0)


(Start cutting path id: path3758-4)
(Change tool to Default tool)

G00 Z5.000000
G00 X127.284628 Y16.999503

G01 Z-0.125000 F60.0(Penetrate)
G02 X126.514250 Y15.139648 Z-0.125000 I-2.630230 J0.000000 F100.000000
G02 X124.654393 Y14.369271 Z-0.125000 I-1.859857 J1.859860
G02 X122.794536 Y15.139648 Z-0.125000 I-0.000000 J2.630237
G02 X122.024158 Y16.999503 Z-0.125000 I1.859852 J1.859855
G02 X122.794537 Y18.859361 Z-0.125000 I2.630235 J-0.000000
G02 X124.654393 Y19.629738 Z-0.125000 I1.859856 J-1.859858
G02 X126.514249 Y18.859361 Z-0.125000 I-0.000000 J-2.630235
G02 X127.284628 Y16.999503 Z-0.125000 I-1.859856 J-1.859858
G01 X127.284628 Y16.999503 Z-0.125000
G00 Z5.000000

(End cutting path id: path3758-4)


(Start cutting path id: path3758)
(Change tool to Default tool)

G00 Z5.000000
G00 X46.758141 Y16.999498

G01 Z-0.125000 F60.0(Penetrate)
G02 X45.987763 Y15.139642 Z-0.125000 I-2.630230 J-0.000000 F100.000000
G02 X44.127906 Y14.369266 Z-0.125000 I-1.859857 J1.859860
G02 X42.268048 Y15.139644 Z-0.125000 I-0.000000 J2.630237
G02 X41.497671 Y16.999498 Z-0.125000 I1.859853 J1.859854
G02 X42.268048 Y18.859353 Z-0.125000 I2.630235 J-0.000000
G02 X44.127906 Y19.629733 Z-0.125000 I1.859858 J-1.859856
G02 X45.987763 Y18.859355 Z-0.125000 I-0.000000 J-2.630235
G02 X46.758141 Y16.999498 Z-0.125000 I-1.859857 J-1.859857
G01 X46.758141 Y16.999498 Z-0.125000
G00 Z5.000000

(End cutting path id: path3758)


(Start cutting path id: path3785)
(Change tool to Default tool)

G00 Z5.000000
G00 X23.123320 Y39.961975

G01 Z-0.125000 F60.0(Penetrate)
G02 X21.342150 Y35.661851 Z-0.125000 I-6.081295 J-0.000000 F100.000000
G02 X17.042029 Y33.880682 Z-0.125000 I-4.300121 J4.300120
G02 X12.741902 Y35.661853 Z-0.125000 I0.000000 J6.081298
G02 X10.960733 Y39.961975 Z-0.125000 I4.300122 J4.300123
G02 X12.741901 Y44.262095 Z-0.125000 I6.081287 J-0.000000
G02 X17.042029 Y46.043266 Z-0.125000 I4.300128 J-4.300129
G02 X21.342151 Y44.262097 Z-0.125000 I-0.000000 J-6.081291
G02 X23.123320 Y39.961975 Z-0.125000 I-4.300122 J-4.300122
G01 X23.123320 Y39.961975 Z-0.125000
G00 Z5.000000

(End cutting path id: path3785)


(Start cutting path id: rect3756)
(Change tool to Default tool)

G00 Z5.000000
G00 X10.960733 Y22.457546

G01 Z-0.125000 F60.0(Penetrate)
G01 X38.876812 Y22.457546 Z-0.125000 F100.000000
G01 X38.876812 Y11.541464 Z-0.125000
G01 X10.960733 Y11.541464 Z-0.125000
G01 X10.960733 Y22.457546 Z-0.125000
G00 Z5.000000

(End cutting path id: rect3756)


(Footer)
M5
G00 X0.0000 Y0.0000
M2
(Using default footer. To add your own footer create file "footer" in the output dir.)
(end)
%