
(Header)
(Generated by gcodetools from Inkscape.)
(Using default header. To add your own header create file "header" in the output dir.)
M3
(Header end.)
G21 (All units in mm)

(Start cutting path id: rect3769)
(Change tool to Default tool)

G00 Z2.00000
G00 X161.026445 Y146.040458

G01 Z-3.50000 F50.0 (Penetrate)
G01 X1.015263 Y146.040458 Z-3.50000 F100.000000
G01 X1.015263 Y130.377125 Z-3.50000
G01 X4.128527 Y130.377125 Z-3.50000
G01 X4.128527 Y114.166972 Z-3.50000
G01 X1.015263 Y114.166972 Z-3.50000
G01 X1.015263 Y97.903917 Z-3.50000
G01 X4.128527 Y97.903917 Z-3.50000
G01 X4.128527 Y81.684958 Z-3.50000
G01 X1.015263 Y81.684958 Z-3.50000
G01 X1.015263 Y66.030444 Z-3.50000
G01 X161.026445 Y66.030444 Z-3.50000
G01 X161.026445 Y81.684958 Z-3.50000
G01 X157.913181 Y81.684958 Z-3.50000
G01 X157.913181 Y97.903917 Z-3.50000
G01 X161.026445 Y97.903917 Z-3.50000
G01 X161.026445 Y114.166972 Z-3.50000
G01 X157.913181 Y114.166972 Z-3.50000
G01 X157.913181 Y130.377125 Z-3.50000
G01 X161.026445 Y130.377125 Z-3.50000
G01 X161.026445 Y146.040458 Z-3.50000
G01 X161.026445 Y146.040458 Z-3.50000
G00 Z2.00000

(End cutting path id: rect3769)


(Start cutting path id: rect4912-2)
(Change tool to Default tool)

G00 Z2.00000
G00 X160.999755 Y0.771641

G01 Z-3.50000 F50.0 (Penetrate)
G01 X160.999755 Y43.193169 Z-3.50000 F100.000000
G01 X160.999755 Y50.557405 Z-3.50000
G01 X144.824891 Y50.557405 Z-3.50000
G01 X144.824891 Y53.750044 Z-3.50000
G01 X128.553019 Y53.750044 Z-3.50000
G01 X128.553019 Y50.557405 Z-3.50000
G01 X112.342880 Y50.557405 Z-3.50000
G01 X112.342880 Y53.750044 Z-3.50000
G01 X97.270449 Y53.750044 Z-3.50000
G01 X97.270449 Y50.557405 Z-3.50000
G01 X81.077949 Y50.557405 Z-3.50000
G01 X81.077949 Y43.193169 Z-3.50000
G02 X93.056351 Y42.645533 Z-3.50000 I-2.959807 J-196.015047
G02 X105.949146 Y41.347349 Z-3.50000 I-20.506621 J-268.330431
G02 X128.026770 Y37.355034 Z-3.50000 I-25.573592 J-204.463869
G02 X142.020308 Y30.510808 Z-3.50000 I-8.197761 J-34.488478
G02 X148.959769 Y19.351977 Z-3.50000 I-12.402403 J-15.449988
G02 X150.998502 Y0.771641 Z-3.50000 I-83.846903 J-18.602148
G01 X160.999755 Y0.771641 Z-3.50000
G01 X160.999755 Y0.771641 Z-3.50000
G00 Z2.00000

(End cutting path id: rect4912-2)


(Start cutting path id: rect4912)
(Change tool to Default tool)

G00 Z2.00000
G00 X1.041953 Y53.750044

G01 Z-3.50000 F50.0 (Penetrate)
G01 X1.041953 Y11.328516 Z-3.50000 F100.000000
G01 X1.041953 Y3.964280 Z-3.50000
G01 X17.216814 Y3.964280 Z-3.50000
G01 X17.216814 Y0.771641 Z-3.50000
G01 X33.488689 Y0.771641 Z-3.50000
G01 X33.488689 Y3.964280 Z-3.50000
G01 X49.698828 Y3.964280 Z-3.50000
G01 X49.698828 Y0.771641 Z-3.50000
G01 X64.771259 Y0.771641 Z-3.50000
G01 X64.771259 Y3.964280 Z-3.50000
G01 X80.963759 Y3.964280 Z-3.50000
G01 X80.963759 Y11.328516 Z-3.50000
G02 X68.985357 Y11.876151 Z-3.50000 I2.959807 J196.015051
G02 X56.092562 Y13.174336 Z-3.50000 I20.506623 J268.330450
G02 X34.014938 Y17.166651 Z-3.50000 I25.573594 J204.463888
G02 X20.021398 Y24.010877 Z-3.50000 I8.197763 J34.488488
G02 X13.081937 Y35.169708 Z-3.50000 I12.402403 J15.449988
G02 X11.043203 Y53.750044 Z-3.50000 I83.846903 J18.602148
G01 X1.041953 Y53.750044 Z-3.50000
G01 X1.041953 Y53.750044 Z-3.50000
G00 Z2.00000

(End cutting path id: rect4912)


(Footer)
M5
G00 X0.0000 Y0.0000
M2
(Using default footer. To add your own footer create file "footer" in the output dir.)
(end)

