%
(Header)
(Generated by gcodetools from Inkscape.)
(Using default header. To add your own header create file "header" in the output dir.)
M3
(Header end.)
G21 (All units in mm)

(Start cutting path id: text3800)
(Change tool to Default tool)

G00 Z5.000000
G00 X135.094646 Y12.428347

G01 Z-0.125000 F60.0(Penetrate)
G01 X135.094646 Y12.128486 Z-0.125000 F100.000000
G01 X135.094646 Y5.637375 Z-0.125000
G01 X135.094646 Y5.337514 Z-0.125000
G01 X135.394507 Y5.337514 Z-0.125000
G01 X136.399923 Y5.337514 Z-0.125000
G01 X136.399923 Y4.323278 Z-0.125000
G01 X136.399923 Y4.023416 Z-0.125000
G01 X136.699784 Y4.023416 Z-0.125000
G01 X138.454854 Y4.023416 Z-0.125000
G03 X139.416932 Y4.164103 Z-0.125000 I0.000000 J3.359902
G03 X140.227562 Y4.552583 Z-0.125000 I-0.825768 J2.763105
G03 X140.871002 Y5.178472 Z-0.125000 I-1.521537 J2.207889
G03 X141.250618 Y5.963694 Z-0.125000 I-1.958855 J1.431382
G01 X141.250618 Y5.972500 Z-0.125000
G01 X141.250618 Y5.981305 Z-0.125000
G03 X141.296948 Y6.259875 Z-0.125000 I-4.222763 J0.845448
G03 X141.312354 Y6.492833 Z-0.125000 I-1.755105 J0.233054
G03 X141.192224 Y7.186606 Z-0.125000 I-2.063607 J-0.000036
G03 X140.844923 Y7.824569 Z-0.125000 I-2.206639 J-0.787757
G03 X140.540452 Y8.141344 Z-0.125000 I-1.568041 J-1.202426
G03 X140.174646 Y8.406652 Z-0.125000 I-2.180519 J-2.621657
G03 X140.536955 Y8.654822 Z-0.125000 I-1.546144 J2.645810
G03 X140.836104 Y8.944638 Z-0.125000 I-1.335421 J1.677724
G03 X141.190021 Y9.537869 Z-0.125000 I-1.592956 J1.352532
G03 X141.312354 Y10.188180 Z-0.125000 I-1.667503 J0.650344
G03 X141.296898 Y10.393346 Z-0.125000 I-1.370523 J-0.000083
G03 X141.250618 Y10.637972 Z-0.125000 I-3.358802 J-0.508750
G01 X141.250618 Y10.655611 Z-0.125000
G01 X141.250618 Y10.664416 Z-0.125000
G03 X140.869956 Y11.373208 Z-0.125000 I-2.000562 J-0.617801
G03 X140.209923 Y11.952055 Z-0.125000 I-2.071851 J-1.696712
G03 X139.394830 Y12.303000 Z-0.125000 I-1.578854 J-2.544965
G03 X138.428396 Y12.428305 Z-0.125000 I-0.966466 J-3.664498
G01 X135.394507 Y12.428305 Z-0.125000
G01 X135.094646 Y12.428305 Z-0.125000
G01 X135.094646 Y12.428347 Z-0.125000
G00 Z5.000000

(End cutting path id: text3800)


(Start cutting path id: text3800)
(Change tool to Default tool)

G00 Z5.000000
G00 X135.694368 Y11.828625

G01 Z-0.125000 F60.0(Penetrate)
G01 X138.428396 Y11.828625 Z-0.125000 F100.000000
G02 X139.246907 Y11.720418 Z-0.125000 I-0.000031 J-3.150085
G02 X139.892423 Y11.440569 Z-0.125000 I-0.627447 J-2.331723
G02 X140.400347 Y10.996449 Z-0.125000 I-1.094805 J-1.764593
G02 X140.668534 Y10.505708 Z-0.125000 I-1.148731 J-0.946429
G02 X140.704978 Y10.303320 Z-0.125000 I-2.206913 J-0.501868
G02 X140.712632 Y10.188208 Z-0.125000 I-0.862766 J-0.115176
G02 X140.630504 Y9.755324 Z-0.125000 I-1.182015 J0.000021
G02 X140.377493 Y9.332722 Z-0.125000 I-1.399452 J0.550811
G02 X139.995624 Y8.995737 Z-0.125000 I-1.354656 J1.150229
G02 X139.407354 Y8.706541 Z-0.125000 I-1.470124 J2.247550
G01 X138.613604 Y8.424319 Z-0.125000
G01 X139.407354 Y8.142097 Z-0.125000
G02 X139.978538 Y7.841022 Z-0.125000 I-0.801840 J-2.213562
G02 X140.368673 Y7.463000 Z-0.125000 I-1.081667 J-1.506655
G02 X140.626823 Y6.988697 Z-0.125000 I-1.381456 J-1.059290
G02 X140.712632 Y6.492861 Z-0.125000 I-1.389797 J-0.495860
G02 X140.703605 Y6.344968 Z-0.125000 I-1.217264 J0.000070
G02 X140.668534 Y6.122444 Z-0.125000 I-3.244550 J0.397334
G02 X140.386231 Y5.531383 Z-0.125000 I-1.803003 J0.498205
G02 X139.892423 Y5.046472 Z-0.125000 I-1.635103 J1.171213
G02 X139.257017 Y4.741221 Z-0.125000 I-1.291066 J1.873517
G02 X138.454854 Y4.623139 Z-0.125000 I-0.802163 J2.665599
G01 X136.999646 Y4.623139 Z-0.125000
G01 X136.999646 Y5.284597 Z-0.125000
G01 X138.622423 Y5.284597 Z-0.125000
G03 X139.175517 Y5.392934 Z-0.125000 I0.000000 J1.466027
G03 X139.636659 Y5.699111 Z-0.125000 I-0.527476 J1.294805
G03 X139.943097 Y6.158633 Z-0.125000 I-0.996460 J0.996439
G03 X140.051173 Y6.704528 Z-0.125000 I-1.324735 J0.545916
G03 X139.943140 Y7.256112 Z-0.125000 I-1.462232 J-0.000021
G03 X139.636659 Y7.709944 Z-0.125000 I-1.232906 J-0.502199
G03 X139.175441 Y8.004322 Z-0.125000 I-0.950942 J-0.981399
G03 X138.622423 Y8.106819 Z-0.125000 I-0.553029 J-1.440693
G01 X137.440618 Y8.098014 Z-0.125000
G01 X137.440618 Y8.794750 Z-0.125000
G01 X138.710618 Y8.777111 Z-0.125000
G03 X139.217330 Y8.865255 Z-0.125000 I0.000012 J1.500474
G03 X139.636659 Y9.112250 Z-0.125000 I-0.440029 J1.226496
G03 X139.927823 Y9.493152 Z-0.125000 I-0.803757 J0.916131
G03 X140.033534 Y9.950097 Z-0.125000 I-0.934813 J0.456964
G03 X139.937513 Y10.410854 Z-0.125000 I-1.153570 J-0.000020
G03 X139.663118 Y10.805583 Z-0.125000 I-1.128327 J-0.491615
G03 X139.254264 Y11.067489 Z-0.125000 I-0.860578 J-0.893346
G03 X138.772354 Y11.158361 Z-0.125000 I-0.481932 J-1.232509
G01 X136.638048 Y11.158361 Z-0.125000
G01 X136.338187 Y11.158361 Z-0.125000
G01 X136.338187 Y10.858500 Z-0.125000
G01 X136.355826 Y5.937250 Z-0.125000
G01 X135.694368 Y5.937250 Z-0.125000
G01 X135.694368 Y11.828639 Z-0.125000
G01 X135.694368 Y11.828625 Z-0.125000
G00 Z5.000000

(End cutting path id: text3800)


(Start cutting path id: text3800)
(Change tool to Default tool)

G00 Z5.000000
G00 X136.937909 Y10.558625

G01 Z-0.125000 F60.0(Penetrate)
G01 X138.772354 Y10.558625 Z-0.125000 F100.000000
G02 X139.029486 Y10.509189 Z-0.125000 I-0.000010 J-0.693484
G02 X139.239784 Y10.373417 Z-0.125000 I-0.241439 J-0.604717
G02 X139.386532 Y10.166566 Z-0.125000 I-0.473252 J-0.491221
G02 X139.433812 Y9.950083 Z-0.125000 I-0.472005 J-0.216491
G02 X139.384982 Y9.748132 Z-0.125000 I-0.442060 J0.000008
G02 X139.239784 Y9.562028 Z-0.125000 I-0.561479 J0.288370
G02 X139.027964 Y9.434629 Z-0.125000 I-0.458626 J0.522749
G02 X138.719437 Y9.376819 Z-0.125000 I-0.315316 J0.830621
G01 X138.710632 Y9.376819 Z-0.125000
G01 X137.140771 Y9.394458 Z-0.125000
G01 X136.946743 Y9.394458 Z-0.125000
G01 X136.937938 Y10.558625 Z-0.125000
G01 X136.937909 Y10.558625 Z-0.125000
G00 Z5.000000

(End cutting path id: text3800)


(Start cutting path id: text3800)
(Change tool to Default tool)

G00 Z5.000000
G00 X138.622423 Y7.507097

G01 Z-0.125000 F60.0(Penetrate)
G02 X138.955714 Y7.443810 Z-0.125000 I-0.000010 J-0.909303 F100.000000
G02 X139.213326 Y7.277791 Z-0.125000 I-0.286725 J-0.727793
G02 X139.384207 Y7.030230 Z-0.125000 I-0.534845 J-0.551935
G02 X139.451451 Y6.704528 Z-0.125000 I-0.755200 J-0.325711
G02 X139.388336 Y6.385099 Z-0.125000 I-0.839935 J0.000010
G02 X139.213326 Y6.122444 Z-0.125000 I-0.743366 J0.305681
G02 X138.952583 Y5.949150 Z-0.125000 I-0.560473 J0.560492
G02 X138.622423 Y5.884319 Z-0.125000 I-0.330160 J0.808284
G01 X136.955548 Y5.884319 Z-0.125000
G01 X136.946743 Y7.498278 Z-0.125000
G01 X137.140771 Y7.498278 Z-0.125000
G01 X138.622437 Y7.507083 Z-0.125000
G01 X138.622423 Y7.507097 Z-0.125000
G00 Z5.000000

(End cutting path id: text3800)


(Start cutting path id: text3796)
(Change tool to Default tool)

G00 Z5.000000
G00 X124.643604 Y10.567444

G01 Z-0.125000 F60.0(Penetrate)
G02 X125.053731 Y10.481648 Z-0.125000 I-0.000019 J-1.023239 F100.000000
G02 X125.375618 Y10.258764 Z-0.125000 I-0.408672 J-0.934074
G02 X125.581573 Y9.934153 Z-0.125000 I-0.671605 J-0.653752
G02 X125.666659 Y9.465014 Z-0.125000 I-1.250852 J-0.469150
G01 X125.666659 Y8.971125 Z-0.125000
G01 X125.419715 Y8.971125 Z-0.125000
G01 X123.611729 Y8.971125 Z-0.125000
G01 X123.620534 Y9.579667 Z-0.125000
G02 X123.696398 Y9.976076 Z-0.125000 I1.073548 J0.000010
G02 X123.902756 Y10.285222 Z-0.125000 I0.826996 J-0.328582
G02 X124.218433 Y10.487920 Z-0.125000 I0.655242 J-0.673294
G02 X124.643590 Y10.567444 Z-0.125000 I0.425177 J-1.096851
G01 X124.643604 Y10.567444 Z-0.125000
G00 Z5.000000

(End cutting path id: text3796)


(Start cutting path id: text3796)
(Change tool to Default tool)

G00 Z5.000000
G00 X124.661243 Y11.810986

G01 Z-0.125000 F60.0(Penetrate)
G02 X125.553649 Y11.636767 Z-0.125000 I-0.000020 J-2.372807 F100.000000
G02 X126.275201 Y11.158347 Z-0.125000 I-0.819893 J-2.019894
G02 X126.754896 Y10.435926 Z-0.125000 I-1.549159 J-1.549129
G02 X126.927840 Y9.553208 Z-0.125000 I-2.166360 J-0.882738
G01 X126.927840 Y4.649597 Z-0.125000
G01 X126.266382 Y4.640792 Z-0.125000
G01 X126.266382 Y9.465028 Z-0.125000
G03 X126.146850 Y10.142109 Z-0.125000 I-1.977545 J-0.000024
G03 X125.807770 Y10.682111 Z-0.125000 I-1.428696 J-0.520651
G03 X125.281465 Y11.039657 Z-0.125000 I-1.135655 J-1.105547
G03 X124.643604 Y11.167181 Z-0.125000 I-0.637882 J-1.531601
G03 X124.008113 Y11.045511 Z-0.125000 I0.000022 J-1.720555
G03 X123.488257 Y10.708570 Z-0.125000 I0.585293 J-1.472538
G03 X123.144715 Y10.202195 Z-0.125000 I1.059059 J-1.088224
G03 X123.020826 Y9.588500 Z-0.125000 I1.499574 J-0.622077
G03 X123.020821 Y9.584097 Z-0.125000 I0.622244 J-0.002935
G02 X123.020826 Y9.579695 Z-0.125000 I-1.866731 J-0.004403
G01 X123.012021 Y8.671292 Z-0.125000
G01 X123.003215 Y8.371431 Z-0.125000
G01 X123.311896 Y8.371431 Z-0.125000
G01 X125.119882 Y8.371431 Z-0.125000
G01 X125.137521 Y7.709972 Z-0.125000
G01 X122.377035 Y7.709972 Z-0.125000
G01 X122.377035 Y9.553236 Z-0.125000
G02 X122.551417 Y10.433552 Z-0.125000 I2.309191 J0.000000
G02 X123.038493 Y11.158375 Z-0.125000 I2.026220 J-0.835538
G02 X123.773991 Y11.639956 Z-0.125000 I1.562819 J-1.584388
G02 X124.661271 Y11.811014 Z-0.125000 I0.887301 J-2.215748
G01 X124.661243 Y11.810986 Z-0.125000
G00 Z5.000000

(End cutting path id: text3796)


(Start cutting path id: text3796)
(Change tool to Default tool)

G00 Z5.000000
G00 X124.661243 Y12.410708

G01 Z-0.125000 F60.0(Penetrate)
G03 X123.553096 Y12.193816 Z-0.125000 I0.000032 J-2.939478 F100.000000
G03 X122.623951 Y11.581680 Z-0.125000 I1.076995 J-2.645977
G03 X122.000170 Y10.659806 Z-0.125000 I1.993138 J-2.020622
G03 X121.777284 Y9.553208 Z-0.125000 I2.635616 J-1.106597
G01 X121.777284 Y7.410083 Z-0.125000
G01 X121.777284 Y7.110222 Z-0.125000
G01 X122.077145 Y7.110222 Z-0.125000
G01 X125.446173 Y7.110222 Z-0.125000
G01 X125.666659 Y7.110222 Z-0.125000
G01 X125.666659 Y4.340916 Z-0.125000
G01 X125.666659 Y4.041055 Z-0.125000
G01 X125.975340 Y4.041055 Z-0.125000
G01 X127.236520 Y4.049861 Z-0.125000
G01 X127.527562 Y4.049861 Z-0.125000
G01 X127.527562 Y4.349722 Z-0.125000
G01 X127.527562 Y9.553194 Z-0.125000
G03 X127.310365 Y10.660639 Z-0.125000 I-2.932028 J-0.000021
G03 X126.698534 Y11.581666 Z-0.125000 I-2.589058 J-1.056159
G03 X125.776864 Y12.192839 Z-0.125000 I-1.969510 J-1.969550
G03 X124.661243 Y12.410694 Z-0.125000 I-1.115653 J-2.747741
G01 X124.661243 Y12.410708 Z-0.125000
G00 Z5.000000

(End cutting path id: text3796)


(Start cutting path id: path3817)
(Change tool to Default tool)

G00 Z5.000000
G00 X124.727190 Y40.122777

G01 Z-0.125000 F60.0(Penetrate)
G02 X124.550523 Y39.200740 Z-0.125000 I-2.494586 J0.000032 F100.000000
G02 X124.058842 Y38.442674 Z-0.125000 I-2.147082 J0.854110
G02 X123.313076 Y37.939848 Z-0.125000 I-1.579709 J1.538489
G02 X122.379013 Y37.756412 Z-0.125000 I-0.934053 J2.286363
G02 X121.460451 Y37.936832 Z-0.125000 I-0.000010 J2.428467
G02 X120.699461 Y38.442674 Z-0.125000 I0.875244 J2.142057
G02 X120.193666 Y39.203686 Z-0.125000 I1.635707 J1.635737
G02 X120.013198 Y40.122777 Z-0.125000 I2.250092 J0.919081
G02 X120.193989 Y41.059363 Z-0.125000 I2.516326 J0.000011
G02 X120.690365 Y41.811426 Z-0.125000 I2.084259 J-0.835811
G02 X121.442414 Y42.307793 Z-0.125000 I1.587849 J-1.587859
G02 X122.379013 Y42.488595 Z-0.125000 I0.936630 J-2.335667
G02 X123.298099 Y42.309411 Z-0.125000 I-0.000031 J-2.446868
G02 X124.049746 Y41.811426 Z-0.125000 I-0.852160 J-2.102484
G02 X124.546331 Y41.059319 Z-0.125000 I-1.587634 J-1.588239
G02 X124.727190 Y40.122777 Z-0.125000 I-2.334586 J-0.936573
G01 X124.727190 Y40.122777 Z-0.125000
G00 Z5.000000

(End cutting path id: path3817)


(Start cutting path id: path3817)
(Change tool to Default tool)

G00 Z5.000000
G00 X124.600963 Y47.022340

G01 Z-0.125000 F60.0(Penetrate)
G01 X121.945760 Y47.022340 Z-0.125000 F100.000000
G02 X121.058305 Y46.031008 Z-0.125000 I-224.040040 J199.670905
G02 X120.175256 Y45.053400 Z-0.125000 I-218.607822 J196.575513
G03 X119.246464 Y43.818211 Z-0.125000 I11.856831 J-9.882462
G03 X118.477511 Y42.543166 Z-0.125000 I11.868926 J-8.027285
G03 X117.939868 Y41.386224 Z-0.125000 I3.690203 J-2.418270
G03 X117.755420 Y40.122777 Z-0.125000 I4.234900 J-1.263433
G03 X118.062270 Y38.506903 Z-0.125000 I4.407971 J-0.000011
G03 X118.965338 Y37.051957 Z-0.125000 I4.445574 J1.751580
G03 X120.513331 Y35.909093 Z-0.125000 I3.518132 J3.145460
G03 X122.306804 Y35.516823 Z-0.125000 I1.793473 J3.903782
G03 X123.395517 Y35.647545 Z-0.125000 I0.000000 J4.599028
G03 X124.455994 Y36.040478 Z-0.125000 I-1.158094 J4.753060
G03 X125.511980 Y36.765625 Z-0.125000 I-2.200690 J4.336183
G03 X126.298431 Y37.702115 Z-0.125000 I-2.968022 J3.290972
G03 X126.795925 Y38.817022 Z-0.125000 I-3.695782 J2.317584
G03 X126.966778 Y40.032379 Z-0.125000 I-4.237693 J1.215416
G03 X126.940466 Y40.535153 Z-0.125000 I-4.819707 J-0.000161
G03 X126.858741 Y41.062049 Z-0.125000 I-5.375974 J-0.564062
G03 X126.291766 Y42.556571 Z-0.125000 I-5.085155 J-1.074342
G03 X125.359435 Y43.699063 Z-0.125000 I-3.845276 J-2.186277
G03 X124.103131 Y44.443350 Z-0.125000 I-2.627702 J-3.002960
G03 X122.595641 Y44.710542 Z-0.125000 I-1.507524 J-4.119201
G01 X122.794631 Y44.710542 Z-0.125000
G02 X122.978548 Y45.140861 Z-0.125000 I1.289268 J-0.296569
G02 X123.661691 Y46.029051 Z-0.125000 I6.337294 J-4.167459
G02 X123.879744 Y46.262507 Z-0.125000 I19.070669 J-17.593909
G02 X124.600963 Y47.022340 Z-0.125000 I202.741812 J-191.716223
G01 X124.600963 Y47.022340 Z-0.125000
G00 Z5.000000

(End cutting path id: path3817)


(Start cutting path id: path3819)
(Change tool to Default tool)

G00 Z5.000000
G00 X131.124594 Y47.022340

G01 Z-0.125000 F60.0(Penetrate)
G01 X128.866817 Y47.022340 Z-0.125000 F100.000000
G01 X128.866817 Y42.506785 Z-0.125000
G01 X131.937637 Y42.488609 Z-0.125000
G02 X132.876684 Y42.310421 Z-0.125000 I-0.000032 J-2.563632
G02 X133.635382 Y41.820259 Z-0.125000 I-0.838679 J-2.130408
G02 X134.136662 Y41.073847 Z-0.125000 I-1.524642 J-1.565462
G02 X134.321644 Y40.122791 Z-0.125000 I-2.352517 J-0.951087
G02 X134.141168 Y39.203697 Z-0.125000 I-2.430678 J0.000031
G02 X133.635382 Y38.442689 Z-0.125000 I-2.141550 J0.874745
G02 X132.873708 Y37.938459 Z-0.125000 I-1.620573 J1.620593
G02 X131.937637 Y37.756426 Z-0.125000 I-0.936061 J2.315710
G01 X128.903198 Y37.756426 Z-0.125000
G01 X128.903198 Y35.535026 Z-0.125000
G01 X131.883067 Y35.535026 Z-0.125000
G03 X133.710121 Y35.884200 Z-0.125000 I-0.000000 J4.954623
G03 X135.206620 Y36.853535 Z-0.125000 I-1.678701 J4.231494
G03 X136.203155 Y38.323193 Z-0.125000 I-3.070925 J3.155000
G03 X136.561230 Y40.122791 Z-0.125000 I-4.343284 J1.799629
G03 X136.206211 Y41.906889 Z-0.125000 I-4.660530 J-0.000031
G03 X135.206620 Y43.391774 Z-0.125000 I-4.168912 J-1.727524
G03 X133.707177 Y44.375181 Z-0.125000 I-3.198566 J-3.242154
G03 X131.883067 Y44.728195 Z-0.125000 I-1.824142 J-4.536472
G01 X131.160976 Y44.710556 Z-0.125000
G01 X131.124594 Y47.022340 Z-0.125000
G00 Z5.000000

(End cutting path id: path3819)


(Start cutting path id: path3821)
(Change tool to Default tool)

G00 Z5.000000
G00 X145.398867 Y40.212625

G01 Z-0.125000 F60.0(Penetrate)
G01 X145.435245 Y40.122777 Z-0.125000 F100.000000
G02 X145.258578 Y39.200740 Z-0.125000 I-2.494586 J0.000032
G02 X144.766898 Y38.442674 Z-0.125000 I-2.147082 J0.854110
G02 X144.021132 Y37.939848 Z-0.125000 I-1.579709 J1.538489
G02 X143.087069 Y37.756412 Z-0.125000 I-0.934053 J2.286363
G02 X142.168507 Y37.936832 Z-0.125000 I-0.000010 J2.428467
G02 X141.407516 Y38.442674 Z-0.125000 I0.875244 J2.142057
G02 X140.901722 Y39.203686 Z-0.125000 I1.635707 J1.635737
G02 X140.721254 Y40.122777 Z-0.125000 I2.250092 J0.919081
G02 X140.902045 Y41.059363 Z-0.125000 I2.516326 J0.000011
G02 X141.398420 Y41.811426 Z-0.125000 I2.084259 J-0.835811
G02 X142.150470 Y42.307793 Z-0.125000 I1.587849 J-1.587859
G02 X143.087069 Y42.488595 Z-0.125000 I0.936630 J-2.335667
G02 X143.989596 Y42.312117 Z-0.125000 I-0.000031 J-2.396204
G02 X144.730793 Y41.820245 Z-0.125000 I-0.844519 J-2.076986
G02 X145.225766 Y41.080213 Z-0.125000 I-1.619422 J-1.618704
G02 X145.398867 Y40.212625 Z-0.125000 I-2.087795 J-0.867618
G01 X145.398867 Y40.212625 Z-0.125000
G00 Z5.000000

(End cutting path id: path3821)


(Start cutting path id: path3821)
(Change tool to Default tool)

G00 Z5.000000
G00 X147.674834 Y40.122777

G01 Z-0.125000 F60.0(Penetrate)
G03 X147.327428 Y41.912810 Z-0.125000 I-4.785551 J-0.000042 F100.000000
G03 X146.356328 Y43.391760 Z-0.125000 I-4.178427 J-1.685320
G03 X144.889689 Y44.373960 Z-0.125000 I-3.130870 J-3.088968
G03 X143.087069 Y44.728181 Z-0.125000 I-1.802651 J-4.409783
G03 X141.299940 Y44.377004 Z-0.125000 I0.000031 J-4.723064
G03 X139.817812 Y43.391760 Z-0.125000 I1.706485 J-4.174533
G03 X138.832361 Y41.909818 Z-0.125000 I3.187721 J-3.188368
G03 X138.481115 Y40.122777 Z-0.125000 I4.370296 J-1.787031
G03 X138.831199 Y38.334695 Z-0.125000 I4.741374 J-0.000010
G03 X139.808716 Y36.862340 Z-0.125000 I4.131496 J1.682287
G03 X141.281917 Y35.886583 Z-0.125000 I3.139724 J3.140365
G03 X143.087069 Y35.535012 Z-0.125000 I1.805152 J4.458519
G03 X144.874684 Y35.884967 Z-0.125000 I0.000000 J4.740666
G03 X146.347232 Y36.862340 Z-0.125000 I-1.682896 J4.133501
G03 X147.324740 Y38.334693 Z-0.125000 I-3.154027 J3.154650
G03 X147.674834 Y40.122777 Z-0.125000 I-4.391437 J1.788126
G01 X147.674834 Y40.122777 Z-0.125000
G00 Z5.000000

(End cutting path id: path3821)


(Start cutting path id: path3823)
(Change tool to Default tool)

G00 Z5.000000
G00 X156.456796 Y33.222664

G01 Z-0.125000 F60.0(Penetrate)
G01 X156.456796 Y35.498634 Z-0.125000 F100.000000
G01 X152.555294 Y35.444614 Z-0.125000
G03 X154.607650 Y37.610068 Z-0.125000 I-39.353803 J39.353725
G03 X155.580640 Y38.813091 Z-0.125000 I-11.136248 J10.001840
G03 X156.325383 Y40.122544 Z-0.125000 I-5.488927 J3.988300
G03 X156.492624 Y40.935270 Z-0.125000 I-1.891280 J0.812756
G03 X156.201313 Y42.384738 Z-0.125000 I-3.751845 J-0.000030
G03 X155.372832 Y43.608665 Z-0.125000 I-3.458257 J-1.448545
G03 X154.134519 Y44.421127 Z-0.125000 I-2.658020 J-2.701299
G03 X152.645693 Y44.710542 Z-0.125000 I-1.488858 J-3.684907
G01 X149.628892 Y44.710542 Z-0.125000
G01 X149.628892 Y42.470403 Z-0.125000
G01 X152.645693 Y42.470403 Z-0.125000
G01 X152.844132 Y42.488607 Z-0.125000
G02 X153.384324 Y42.390405 Z-0.125000 I-0.000034 J-1.535047
G02 X153.828602 Y42.118464 Z-0.125000 I-0.486250 J-1.293283
G02 X154.129513 Y41.701791 Z-0.125000 I-0.844608 J-0.926947
G02 X154.234847 Y41.206480 Z-0.125000 I-1.111972 J-0.495331
G01 X154.253022 Y41.151909 Z-0.125000
G02 X154.032646 Y40.258445 Z-0.125000 I-1.921426 J0.000017
G02 X152.934516 Y38.641675 Z-0.125000 I-7.672908 J4.030213
G02 X151.714772 Y37.370378 Z-0.125000 I-12.890379 J11.146874
G02 X149.628878 Y35.535024 Z-0.125000 I-29.025141 J30.884278
G01 X149.628878 Y33.204486 Z-0.125000
G01 X156.456796 Y33.222664 Z-0.125000
G00 Z5.000000

(End cutting path id: path3823)


(Start cutting path id: path3815)
(Change tool to Default tool)

G00 Z5.000000
G00 X110.629309 Y40.899441

G01 Z-0.125000 F60.0(Penetrate)
G01 X110.646948 Y38.605282 Z-0.125000 F100.000000
G01 X115.975546 Y38.605282 Z-0.125000
G01 X115.939165 Y40.899441 Z-0.125000
G01 X110.629309 Y40.899441 Z-0.125000
G00 Z5.000000

(End cutting path id: path3815)


(Start cutting path id: path3813)
(Change tool to Default tool)

G00 Z5.000000
G00 X108.761241 Y35.535012

G01 Z-0.125000 F60.0(Penetrate)
G01 X108.761241 Y37.792790 Z-0.125000 F100.000000
G01 X104.137094 Y37.792790 Z-0.125000
G01 X104.173476 Y47.022340 Z-0.125000
G01 X101.933337 Y47.022340 Z-0.125000
G01 X101.933337 Y35.535012 Z-0.125000
G01 X108.761241 Y35.535012 Z-0.125000
G00 Z5.000000

(End cutting path id: path3813)


(Start cutting path id: path3811)
(Change tool to Default tool)

G00 Z5.000000
G00 X99.890533 Y43.193047

G01 Z-0.125000 F60.0(Penetrate)
G01 X97.668583 Y43.174872 Z-0.125000 F100.000000
G01 X97.668583 Y37.756426 Z-0.125000
G01 X95.663815 Y37.756426 Z-0.125000
G02 X94.313495 Y38.024875 Z-0.125000 I-0.000010 J3.530280
G02 X93.198502 Y38.777001 Z-0.125000 I1.288658 J3.112904
G02 X92.460917 Y39.905862 Z-0.125000 I2.449501 J2.405872
G02 X92.196120 Y41.278692 Z-0.125000 I3.426174 J1.372809
G02 X92.460914 Y42.651504 Z-0.125000 I3.690922 J0.000021
G02 X93.198502 Y43.780380 Z-0.125000 I3.187187 J-1.277052
G02 X94.313492 Y44.532497 Z-0.125000 I2.403671 J-2.360837
G02 X95.663815 Y44.800958 Z-0.125000 I1.350364 J-3.261957
G01 X99.890533 Y44.818597 Z-0.125000
G01 X99.890533 Y47.022354 Z-0.125000
G01 X95.663815 Y47.022354 Z-0.125000
G03 X93.462422 Y46.584794 Z-0.125000 I0.000041 J-5.756661
G03 X91.626987 Y45.351621 Z-0.125000 I2.136744 J-5.162797
G03 X90.408191 Y43.502466 Z-0.125000 I4.016964 J-3.973859
G03 X89.974170 Y41.278692 Z-0.125000 I5.479867 J-2.223764
G03 X90.408583 Y39.036862 Z-0.125000 I6.001738 J-0.000010
G03 X91.617894 Y37.196666 Z-0.125000 I5.176848 J2.084584
G03 X93.444428 Y35.973023 Z-0.125000 I3.922768 J3.880464
G03 X95.663815 Y35.535026 Z-0.125000 I2.219387 J5.403971
G01 X99.890533 Y35.535026 Z-0.125000
G01 X99.890533 Y43.193047 Z-0.125000
G00 Z5.000000

(End cutting path id: path3811)


(Start cutting path id: path3809)
(Change tool to Default tool)

G00 Z5.000000
G00 X81.844296 Y35.535012

G01 Z-0.125000 F60.0(Penetrate)
G01 X84.102074 Y35.535012 Z-0.125000 F100.000000
G01 X84.102074 Y44.782752 Z-0.125000
G01 X87.967195 Y44.782752 Z-0.125000
G01 X87.967195 Y47.022340 Z-0.125000
G01 X78.015003 Y47.022340 Z-0.125000
G01 X78.015003 Y44.782752 Z-0.125000
G01 X81.880674 Y44.782752 Z-0.125000
G01 X81.844296 Y35.535012 Z-0.125000
G00 Z5.000000

(End cutting path id: path3809)


(Footer)
M5
G00 X0.0000 Y0.0000
M2
(Using default footer. To add your own footer create file "footer" in the output dir.)
(end)
%